X: 15
T: Coleraine
B: NEFR #15
B: Kerr's Violin IV
Z: John Chambers <jc:trillian.mit.edu>
R: jig
M: 6/8
L: 1/8
K: Am
"E7"E \
| "Am"EAA ABc | "E7"Bee e2d | "Am"cBA ABc | "E7"B^GE E2D \
| "Am"EAA ABc | "E7"Bee e2d | "Am"cBA "E7"B^GE | "Am"A3- A2 :|
|: "G7"B | "C"c2c cdc | "G"Bdg "(E)"g2^g | "Am"aed cBA | "E7"^GBG E^FG \
| "Am"A^GA "E7"BAB | "Am"cde "Dm"fed | "Am"cBA "E7"B^GE | "Am"A3- A2 :|
